Sweet-Rainbow/icons/sublime-text.svg

<?xml version="1.0" encoding="UTF-8" standalone="no"?>
<!-- Generator: Gravit.io -->

<svg
   xmlns:dc="http://purl.org/dc/elements/1.1/"
   xmlns:cc="http://creativecommons.org/ns#"
   xmlns:rdf="http://www.w3.org/1999/02/22-rdf-syntax-ns#"
   xmlns:svg="http://www.w3.org/2000/svg"
   xmlns="http://www.w3.org/2000/svg"
   xmlns:sodipodi="http://sodipodi.sourceforge.net/DTD/sodipodi-0.dtd"
   xmlns:inkscape="http://www.inkscape.org/namespaces/inkscape"
   style="isolation:isolate"
   viewBox="0 0 48 48"
   width="48"
   height="48"
   version="1.1"
   id="svg11"
   sodipodi:docname="sublime-text.svg"
   inkscape:version="0.92.4 (5da689c313, 2019-01-14)">
  <metadata
     id="metadata17">
    <rdf:RDF>
      <cc:Work
         rdf:about="">
        <dc:format>image/svg+xml</dc:format>
        <dc:type
           rdf:resource="http://purl.org/dc/dcmitype/StillImage" />
        <dc:title></dc:title>
      </cc:Work>
    </rdf:RDF>
  </metadata>
  <defs
     id="defs15" />
  <sodipodi:namedview
     pagecolor="#ffffff"
     bordercolor="#666666"
     borderopacity="1"
     objecttolerance="10"
     gridtolerance="10"
     guidetolerance="10"
     inkscape:pageopacity="0"
     inkscape:pageshadow="2"
     inkscape:window-width="640"
     inkscape:window-height="480"
     id="namedview13"
     showgrid="false"
     inkscape:zoom="39.153656"
     inkscape:cx="18.994082"
     inkscape:cy="24"
     inkscape:current-layer="svg11" />
  <linearGradient
     id="_lgradient_10"
     x1="-0.014458464"
     y1="0.009839246"
     x2="1.0164566"
     y2="1.072293"
     gradientTransform="matrix(23.985,0,0,33.975,11.008,7.08)"
     gradientUnits="userSpaceOnUse">
    <stop
       offset="0%"
       stop-opacity="1"
       style="stop-color:rgb(249,212,35)"
       id="stop2" />
    <stop
       offset="51.56237565086822%"
       stop-opacity="1"
       style="stop-color:rgb(255,78,80)"
       id="stop4" />
    <stop
       offset="99.1304347826087%"
       stop-opacity="1"
       style="stop-color:rgb(138,35,135)"
       id="stop6" />
  </linearGradient>
  <g
     id="g825"
     transform="matrix(1.4128035,0,0,1.4128035,-8.4951869,-10.002648)">
    <path
       id="path9"
       d="M 12.583,36.465 12.178,35.97 v 0 q -1.17,-1.44 -1.17,-2.587 v 0 0 q 0,-1.148 1.935,-3.038 v 0 0 q 1.124,-1.08 2.385,-1.08 v 0 0 q 1.26,0 3.51,2.25 v 0 0 q 0.63,0.765 1.8,1.463 v 0 0 q 1.169,0.697 2.16,0.697 v 0 0 q 4.184,0 4.184,-3.42 v 0 0 q 0,-1.035 -1.147,-1.732 v 0 0 Q 24.688,27.825 22.978,27.51 v 0 0 q -1.71,-0.315 -3.69,-1.012 v 0 0 q -1.98,-0.698 -3.69,-1.643 v 0 0 Q 13.888,23.91 12.74,21.863 v 0 0 q -1.147,-2.048 -1.147,-4.928 v 0 0 q 0,-3.96 2.947,-6.907 v 0 0 Q 17.488,7.08 22.572,7.08 v 0 0 q 2.701,0 4.928,0.698 v 0 0 q 2.228,0.697 3.083,1.417 v 0 l 1.125,0.855 v 0 q 1.395,1.305 1.395,2.205 v 0 0 q 0,0.9 -1.08,2.475 v 0 0 q -1.53,2.25 -3.15,2.25 v 0 0 q -0.945,0 -2.34,-0.9 v 0 0 q -0.135,-0.09 -0.518,-0.45 v 0 0 q -0.382,-0.36 -0.697,-0.585 v 0 0 Q 24.373,14.46 22.91,14.46 v 0 0 q -1.463,0 -2.43,0.698 v 0 0 q -0.967,0.697 -0.967,1.935 v 0 0 q 0,1.237 1.147,2.002 v 0 0 q 1.147,0.765 2.858,1.035 v 0 0 q 1.71,0.27 3.735,0.833 v 0 0 q 2.025,0.562 3.735,1.372 v 0 0 q 1.709,0.81 2.857,2.813 v 0 0 q 1.148,2.002 1.148,4.927 v 0 0 q 0,2.925 -1.17,5.153 v 0 0 q -1.17,2.227 -3.06,3.442 v 0 0 q -3.645,2.385 -7.785,2.385 v 0 0 q -2.115,0 -4.005,-0.518 v 0 0 q -1.89,-0.517 -3.06,-1.282 v 0 0 q -2.385,-1.44 -3.33,-2.79 z"
       style="fill:url(#_lgradient_10)"
       inkscape:connector-curvature="0" />
  </g>
</svg>

<?xml version="1.0" standalone="no"?><!-- Generator: Gravit.io --><svg xmlns="http://www.w3.org/2000/svg" xmlns:xlink="http://www.w3.org/1999/xlink" style="isolation:isolate" viewBox="0 0 48 48" width="48px" height="48px"><linearGradient id="_lgradient_10" x1="-0.014458464773922156" y1="0.009839246119734024" x2="1.0164565923220248" y2="1.0722930524759795" gradientTransform="matrix(23.985,0,0,33.975,11.008,7.08)" gradientUnits="userSpaceOnUse"><stop offset="0%" stop-opacity="1" style="stop-color:rgb(249,212,35)"/><stop offset="51.56237565086822%" stop-opacity="1" style="stop-color:rgb(255,78,80)"/><stop offset="99.1304347826087%" stop-opacity="1" style="stop-color:rgb(138,35,135)"/></linearGradient><path d=" M 12.583 36.465 L 12.178 35.97 L 12.178 35.97 Q 11.008 34.53 11.008 33.383 L 11.008 33.383 L 11.008 33.383 Q 11.008 32.235 12.943 30.345 L 12.943 30.345 L 12.943 30.345 Q 14.067 29.265 15.328 29.265 L 15.328 29.265 L 15.328 29.265 Q 16.588 29.265 18.838 31.515 L 18.838 31.515 L 18.838 31.515 Q 19.468 32.28 20.638 32.978 L 20.638 32.978 L 20.638 32.978 Q 21.807 33.675 22.798 33.675 L 22.798 33.675 L 22.798 33.675 Q 26.982 33.675 26.982 30.255 L 26.982 30.255 L 26.982 30.255 Q 26.982 29.22 25.835 28.523 L 25.835 28.523 L 25.835 28.523 Q 24.688 27.825 22.978 27.51 L 22.978 27.51 L 22.978 27.51 Q 21.268 27.195 19.288 26.498 L 19.288 26.498 L 19.288 26.498 Q 17.308 25.8 15.598 24.855 L 15.598 24.855 L 15.598 24.855 Q 13.888 23.91 12.74 21.863 L 12.74 21.863 L 12.74 21.863 Q 11.593 19.815 11.593 16.935 L 11.593 16.935 L 11.593 16.935 Q 11.593 12.975 14.54 10.028 L 14.54 10.028 L 14.54 10.028 Q 17.488 7.08 22.572 7.08 L 22.572 7.08 L 22.572 7.08 Q 25.273 7.08 27.5 7.778 L 27.5 7.778 L 27.5 7.778 Q 29.728 8.475 30.583 9.195 L 30.583 9.195 L 31.708 10.05 L 31.708 10.05 Q 33.103 11.355 33.103 12.255 L 33.103 12.255 L 33.103 12.255 Q 33.103 13.155 32.023 14.73 L 32.023 14.73 L 32.023 14.73 Q 30.493 16.98 28.873 16.98 L 28.873 16.98 L 28.873 16.98 Q 27.928 16.98 26.533 16.08 L 26.533 16.08 L 26.533 16.08 Q 26.398 15.99 26.015 15.63 L 26.015 15.63 L 26.015 15.63 Q 25.633 15.27 25.318 15.045 L 25.318 15.045 L 25.318 15.045 Q 24.373 14.46 22.91 14.46 L 22.91 14.46 L 22.91 14.46 Q 21.447 14.46 20.48 15.158 L 20.48 15.158 L 20.48 15.158 Q 19.513 15.855 19.513 17.093 L 19.513 17.093 L 19.513 17.093 Q 19.513 18.33 20.66 19.095 L 20.66 19.095 L 20.66 19.095 Q 21.807 19.86 23.518 20.13 L 23.518 20.13 L 23.518 20.13 Q 25.228 20.4 27.253 20.963 L 27.253 20.963 L 27.253 20.963 Q 29.278 21.525 30.988 22.335 L 30.988 22.335 L 30.988 22.335 Q 32.697 23.145 33.845 25.148 L 33.845 25.148 L 33.845 25.148 Q 34.993 27.15 34.993 30.075 L 34.993 30.075 L 34.993 30.075 Q 34.993 33 33.823 35.228 L 33.823 35.228 L 33.823 35.228 Q 32.653 37.455 30.763 38.67 L 30.763 38.67 L 30.763 38.67 Q 27.118 41.055 22.978 41.055 L 22.978 41.055 L 22.978 41.055 Q 20.863 41.055 18.973 40.537 L 18.973 40.537 L 18.973 40.537 Q 17.083 40.02 15.913 39.255 L 15.913 39.255 L 15.913 39.255 Q 13.528 37.815 12.583 36.465 L 12.583 36.465 L 12.583 36.465 Z " fill="url(#_lgradient_10)"/></svg>
